local/share/icons/dracula-icons-main/scalable/apps/stacer.svg

<?xml version="1.0" encoding="UTF-8"?>
<svg xmlns="http://www.w3.org/2000/svg" xmlns:xlink="http://www.w3.org/1999/xlink" width="64" height="64" viewBox="0 0 64 64">
<path fill-rule="nonzero" fill="rgb(21.568627%, 27.45098%, 31.764706%)" fill-opacity="1" d="M 58.179688 25.136719 C 58.117188 24.886719 58.046875 24.621094 57.972656 24.355469 C 57.914062 24.164062 57.859375 23.964844 57.792969 23.757812 C 57.699219 23.460938 57.597656 23.15625 57.488281 22.851562 C 57.121094 21.804688 56.679688 20.789062 56.164062 19.78125 C 55.945312 19.355469 55.710938 18.925781 55.460938 18.5 C 54.300781 16.527344 52.839844 14.65625 51.09375 12.90625 C 46.941406 8.753906 42.105469 6.234375 36.582031 5.355469 C 35.652344 5.203125 34.707031 5.101562 33.71875 5.046875 C 33.164062 5.015625 32.585938 5 32 5 C 31.464844 5 30.933594 5.011719 30.402344 5.042969 C 23.632812 5.390625 17.800781 8.011719 12.90625 12.90625 C 7.636719 18.179688 5 24.542969 5 32 C 5 39.453125 7.636719 45.820312 12.90625 51.09375 C 16.152344 54.332031 19.804688 56.578125 23.839844 57.816406 C 25.941406 58.460938 28.117188 58.839844 30.402344 58.957031 L 30.425781 58.957031 C 30.914062 58.984375 31.375 59 31.828125 59 L 32 59 C 32.589844 59 33.171875 58.980469 33.722656 58.953125 C 33.863281 58.945312 33.992188 58.933594 34.117188 58.925781 C 35.273438 58.84375 36.402344 58.695312 37.476562 58.484375 C 37.929688 58.398438 38.378906 58.296875 38.816406 58.191406 C 43.4375 57.03125 47.519531 54.667969 51.09375 51.09375 C 53.875 48.3125 55.921875 45.230469 57.234375 41.835938 C 58.289062 39.109375 58.875 36.183594 58.980469 33.054688 C 58.992188 32.710938 59 32.355469 59 31.996094 L 59 31.824219 C 58.988281 29.5 58.714844 27.277344 58.179688 25.132812 Z M 58.179688 25.136719 "/>
<path fill-rule="nonzero" fill="rgb(100%, 100%, 100%)" fill-opacity="1" d="M 30.757812 16 C 22.519531 16.496094 16 23.484375 16 32 C 16 40.84375 23.234375 48 32.007812 48 C 40.519531 48 47.59375 41.019531 47.996094 32.714844 L 44.175781 32.714844 C 43.773438 39.101562 38.523438 44.167969 32.109375 44.167969 C 25.433594 44.167969 19.800781 38.710938 19.800781 31.984375 C 19.800781 25.578125 25.054688 20.339844 30.757812 19.851562 Z M 32.660156 16 L 32.660156 19.847656 C 35.828125 20.050781 37.695312 21.066406 39.570312 22.648438 L 42.363281 19.933594 C 39.789062 17.664062 36.460938 16.214844 32.660156 16 Z M 43.921875 21.242188 L 41.222656 23.945312 C 42.847656 25.824219 43.917969 28.246094 44.160156 30.800781 L 47.976562 30.800781 C 47.71875 26.96875 46.234375 23.820312 43.921875 21.242188 Z M 39.0625 24.816406 L 31.007812 29.792969 L 31.015625 29.800781 C 30.25 30.238281 29.726562 31.054688 29.726562 32 C 29.726562 33.398438 30.851562 34.535156 32.238281 34.535156 C 33.214844 34.535156 34.050781 33.96875 34.46875 33.152344 L 34.472656 33.160156 Z M 39.0625 24.816406 "/>
</svg>

<svg id="SimpleNote" width="64" height="64" enable-background="new 0 0 1024 1024" image-rendering="optimizeSpeed" version="1.1" viewBox="0 0 64 64" xmlns="http://www.w3.org/2000/svg">
 <path d="m58.181 25.135c-0.06292-0.24884-0.13443-0.51484-0.20879-0.77798-0.0572-0.19449-0.11441-0.39185-0.18019-0.60067-0.09153-0.2946-0.19449-0.60066-0.30318-0.90672-0.36896-1.0439-0.8094-2.0622-1.3243-3.0691-0.21738-0.42332-0.45477-0.85522-0.70359-1.2813-1.1612-1.9735-2.6199-3.8442-4.3675-5.5917-4.153-4.1531-8.9891-6.6731-14.51-7.554-0.92955-0.14873-1.8763-0.25169-2.8631-0.30605-0.55486-0.031462-1.1355-0.048623-1.7218-0.048623-0.53484 0-1.064 0.014301-1.596 0.042904-6.7701 0.34895-12.602 2.9718-17.495 7.8655q-7.9082 7.9084-7.9082 19.091c0 7.4568 2.6371 13.823 7.9082 19.094 3.2434 3.2407 6.8959 5.4859 10.932 6.7246 2.1022 0.64354 4.2788 1.0211 6.5638 1.1412h0.02288c0.48623 0.02574 0.94956 0.04004 1.4015 0.04004h0.17161c0.58921 0 1.1727-0.01716 1.7218-0.04576 0.14301-0.0085 0.27172-0.01716 0.39756-0.02574 1.1555-0.08294 2.2824-0.23168 3.3578-0.44047 0.45476-0.08866 0.90383-0.18877 1.3386-0.29461 4.622-1.1612 8.7033-3.5238 12.279-7.099 2.7801-2.7801 4.828-5.8632 6.1408-9.2558 1.0554-2.7258 1.6389-5.6518 1.7475-8.7808 0.01144-0.34609 0.01716-0.70075 0.01716-1.0583v-0.17161c-0.01144-2.3253-0.28316-4.5478-0.81797-6.6932z" fill="#374651" stroke-width=".99684"/>
 <g transform="matrix(.63376 0 0 .63861 15.999 15.878)" fill="#333" stroke-width="15.939">
  <g fill="#333" stroke-width="15.939">
   <g fill="#333" stroke-width="15.939">
    <g fill="#333" stroke-width="15.939">
     <path transform="matrix(1.5466 0 0 1.5466 -24.588 -24.977)" d="m30.955 16.273c-8.4053 0.50367-15.057 7.5767-15.057 16.201 0 8.951 7.3836 16.197 16.334 16.197 8.6846 0 15.898-7.0673 16.312-15.473h-3.8984c-0.41186 6.4656-5.7693 11.596-12.312 11.596-6.8115-6.47e-4 -12.557-5.527-12.557-12.338 0-6.4837 5.3587-11.787 11.178-12.285zm1.9414 0v3.8965c3.2328 0.20561 5.1376 1.2338 7.0508 2.8359l2.8496-2.75c-2.6263-2.2966-6.021-3.7632-9.9004-3.9824zm11.49 5.3066-2.7559 2.7383c1.6591 1.9009 2.7517 4.3552 2.998 6.9414h3.8926c-0.26121-3.8794-1.778-7.0676-4.1348-9.6797zm-4.959 3.6211-8.2168 5.0391 0.0078 0.0078c-0.78169 0.44031-1.3164 1.2671-1.3164 2.2266 0 1.4153 1.1491 2.5645 2.5645 2.5645 0.99441 0 1.8474-0.57213 2.2734-1.3984l0.0059 0.0059z" fill="#fff" stroke-width="10.306"/>
    </g>
   </g>
  </g>
 </g>
</svg>
